actions/symbolic/send-to-symbolic.svg

<?xml version="1.0" encoding="UTF-8" standalone="no"?>
<svg
   xmlns:osb="http://www.openswatchbook.org/uri/2009/osb"
   xmlns:dc="http://purl.org/dc/elements/1.1/"
   xmlns:cc="http://creativecommons.org/ns#"
   xmlns:rdf="http://www.w3.org/1999/02/22-rdf-syntax-ns#"
   xmlns:svg="http://www.w3.org/2000/svg"
   xmlns="http://www.w3.org/2000/svg"
   id="svg6860"
   height="16"
   width="16"
   version="1.1">
  <defs
     id="defs6862">
    <linearGradient
       osb:paint="solid"
       id="linearGradient4526">
      <stop
         id="stop4528"
         offset="0"
         style="stop-color:#ffffff;stop-opacity:1;" />
    </linearGradient>
  </defs>
  <metadata
     id="metadata6865">
    <rdf:RDF>
      <cc:Work
         rdf:about="">
        <dc:format>image/svg+xml</dc:format>
        <dc:type
           rdf:resource="http://purl.org/dc/dcmitype/StillImage" />
        <dc:title />
      </cc:Work>
    </rdf:RDF>
  </metadata>
  <path
     id="path8103"
     d="M 12.5 1 A 2.5 2.5 0 0 0 10 3.5 A 2.5 2.5 0 0 0 10.050781 3.9824219 L 5.2050781 6.6757812 A 2.5 2.5 0 0 0 3.5 6 A 2.5 2.5 0 0 0 1 8.5 A 2.5 2.5 0 0 0 3.5 11 A 2.5 2.5 0 0 0 5.2167969 10.316406 L 10.050781 13.003906 A 2.5 2.5 0 0 0 10 13.5 A 2.5 2.5 0 0 0 12.5 16 A 2.5 2.5 0 0 0 15 13.5 A 2.5 2.5 0 0 0 12.5 11 A 2.5 2.5 0 0 0 10.779297 11.6875 L 5.9472656 9 A 2.5 2.5 0 0 0 6 8.5 A 2.5 2.5 0 0 0 5.9433594 7.9863281 L 10.771484 5.3027344 A 2.5 2.5 0 0 0 12.5 6 A 2.5 2.5 0 0 0 15 3.5 A 2.5 2.5 0 0 0 12.5 1 z "
     style="color:#000000;clip-rule:nonzero;display:inline;overflow:visible;visibility:visible;opacity:1;isolation:auto;mix-blend-mode:normal;color-interpolation:sRGB;color-interpolation-filters:linearRGB;solid-color:#000000;solid-opacity:1;fill:#bebebe;fill-opacity:1;fill-rule:evenodd;stroke:none;stroke-width:2;stroke-linecap:butt;stroke-linejoin:round;stroke-miterlimit:4;stroke-dasharray:none;stroke-dashoffset:0;stroke-opacity:1;color-rendering:auto;image-rendering:auto;shape-rendering:auto;text-rendering:auto;enable-background:accumulate" />
</svg>

<svg xmlns="http://www.w3.org/2000/svg" viewBox="0 0 16 16"><path d="M12.5 1A2.5 2.5 0 0 0 10 3.5a2.5 2.5 0 0 0 .05.482L5.206 6.676A2.5 2.5 0 0 0 3.5 6 2.5 2.5 0 0 0 1 8.5 2.5 2.5 0 0 0 3.5 11a2.5 2.5 0 0 0 1.717-.684l4.834 2.688a2.5 2.5 0 0 0-.05.496 2.5 2.5 0 0 0 2.5 2.5 2.5 2.5 0 0 0 2.5-2.5 2.5 2.5 0 0 0-2.5-2.5 2.5 2.5 0 0 0-1.72.688L5.947 9A2.5 2.5 0 0 0 6 8.5a2.5 2.5 0 0 0-.057-.514l4.828-2.683A2.5 2.5 0 0 0 12.5 6 2.5 2.5 0 0 0 15 3.5 2.5 2.5 0 0 0 12.5 1z" style="isolation:auto;mix-blend-mode:normal" color="#000" overflow="visible" fill="#bebebe" fill-rule="evenodd"/></svg>
